X:15
T:Guy Mannering. ET.15
T:There’s Nae Guid Luck Aboot the Hoose,aka. ET.15
M:C
L:1/8
Q:1/4=100
S:Eliza Tennyson MS, Lincolnshire,1822
R:jig
N:As writ. An attempt to notate a jig in common time?
O:England;Lincolnshire;Somersby
Z:vmp.R.Greig 2011 <http://www.village-music-project.org.uk>
K:G
“^bar line added”G>A| B> B B> G”^bar line omitted” c> c c> A|B> B B> G A2 G>A|B> B B> G c/ d He e/|{e}d> c B< A G2d> d|!
{d/}g>e d> B c> d e> e|{d/}g>e d> B A3 d|g< e d< B c> d He> e|{e/}d> c {c/}B> A hG2|]

